Ingreelab HD dev.style/icon/entrance.svg

<svg fill="none" height="14" viewBox="0 0 13 14" width="13" xmlns="http://www.w3.org/2000/svg" xmlns:xlink="http://www.w3.org/1999/xlink"><clipPath id="a"><path d="m0 0h13v14h-13z"/></clipPath><g clip-path="url(#a)" clip-rule="evenodd" fill-rule="evenodd"><path d="m5 1c-.55229 0-1 .44772-1 1v3.49998h-1.5c-.82843 0-1.5.67158-1.5 1.5 0 .82843.67157 1.5 1.5 1.5h1.5v3.50002c0 .5523.44771 1 1 1h6c.5523 0 1-.4477 1-1v-10c0-.55228-.4477-1-1-1z" fill="#808080"/><g fill="#fff"><path d="m3 2c0-1.104568.89543-2 2-2h6c1.1046 0 2 .89543 2 2v10c0 1.1046-.8954 2-2 2h-6c-1.10457 0-2-.8954-2-2v-2.50002h-.5c-1.38071 0-2.5-1.11928-2.5-2.5 0-1.38071 1.11929-2.5 2.5-2.5h.5zm1 0c0-.55228.44771-1 1-1h6c.5523 0 1 .44772 1 1v10c0 .5523-.4477 1-1 1h-6c-.55229 0-1-.4477-1-1v-3.50002h-1.5c-.00324 0-.00647 0-.0097-.00003-.82396-.00521-1.4903-.67477-1.4903-1.49997 0-.82842.67157-1.5 1.5-1.5h1.5z"/><path d="m6 7.5v1.49999c0 .41202.47038.64722.8.4l2.66667-2c.26666-.2.26666-.6 0-.8l-2.66667-2c-.32962-.24721-.8-.01202-.8.4v1.50001l-3.5-.00002c-.27614 0-.5.22386-.5.5 0 .27615.22386.5.5.5z"/></g></g></svg>

<svg width="13" height="14" viewBox="0 0 13 14" fill="none" xmlns="http://www.w3.org/2000/svg">
<g clip-path="url(#clip0_1318_3151)">
<path fill-rule="evenodd" clip-rule="evenodd" d="M5 1C4.44771 1 4 1.44772 4 2V5.49998H2.5C1.67157 5.49998 1 6.17156 1 6.99998C1 7.82841 1.67157 8.49998 2.5 8.49998H4V12C4 12.5523 4.44771 13 5 13H11C11.5523 13 12 12.5523 12 12V2C12 1.44772 11.5523 1 11 1H5Z" fill="#808080"/>
<path fill-rule="evenodd" clip-rule="evenodd" d="M3 2C3 0.895432 3.89543 0 5 0H11C12.1046 0 13 0.89543 13 2V12C13 13.1046 12.1046 14 11 14H5C3.89543 14 3 13.1046 3 12V9.49998H2.5C1.11929 9.49998 0 8.3807 0 6.99998C0 5.61927 1.11929 4.49998 2.5 4.49998H3V2ZM4 2C4 1.44772 4.44771 1 5 1H11C11.5523 1 12 1.44772 12 2V12C12 12.5523 11.5523 13 11 13H5C4.44771 13 4 12.5523 4 12V8.49998H2.5C2.49676 8.49998 2.49353 8.49998 2.4903 8.49995C1.66634 8.49474 1 7.82518 1 6.99998C1 6.17156 1.67157 5.49998 2.5 5.49998H4V2Z" fill="white"/>
<path fill-rule="evenodd" clip-rule="evenodd" d="M6 7.5V8.99999C6 9.41201 6.47038 9.64721 6.8 9.39999L9.46667 7.39999C9.73333 7.19999 9.73333 6.79999 9.46667 6.59999L6.8 4.59999C6.47038 4.35278 6 4.58797 6 4.99999V6.5L2.5 6.49998C2.22386 6.49998 2 6.72384 2 6.99998C2 7.27613 2.22386 7.49998 2.5 7.49998L6 7.5Z" fill="white"/>
</g>
<defs>
<clipPath id="clip0_1318_3151">
<rect width="13" height="14" fill="white"/>
</clipPath>
</defs>
</svg>
